x:1
T:Phantom of the Opera
C:Andrew Lloyd Webber
N:celestial
Q:1/4=125
M:4/4
L:1/8
K:C

A,2 D2 A,2 |C3 _B, _B,4 |_B,2 G,2 C3 G, |A,8 |z2 A,2 D2 A,2 |C3 _B, _B,4 |_B,2 G,2 C3 G, |A,8 |z2 A,2 D2 F2 |A3 G G4 |G2 G2 c3 G |A8 |A4 z2 A2 |d8 |d c _B A G F E D |^C8 |^C2 _B,2 _B,3 A, |A,8 |A,4 z4 |z8 |z2 D2 G2 D2 |F3 _E _E4 |_E2 C2 F3 C |D8 |D2 D2 G2 D2 |F3 _E _E4 |_E2 C2 F3 C |D8 |z2 D2 G2 _B2 |d3 c c4 |c2 c2 f3 c |d8 |d4 z2 d2 |g8 |g f _e d c _B A G |^F8 |^F2 _E2 _E3 D |D8 |D4 z4 |z8 |z2 B,2 E2 B,2 |D3 C C4 |C2 A,2 D3 A, |B,8 |B,2 B,2 E2 B,2 |D3 C C4 |C2 A2 d3 A |B8 |z2 B,2 E2 G2 |B3 A A4 |A2 A2 d3 A |B8 |B4 z2 B2 |e8 |e d c B A G ^F E |^D8 |z2 C2 C3 B, |B,8 |z8 |z2 C2 F2 C2 |_E3 _D _D4 |_D2 _B,2 _E3 _B, |C8 |C2 C2 F2 C2 |_E3 _D _D4 |_D2 _B,2 _E3 _B, |C8 |z2 C2 F2 _A2 |c3 _B _B4 |_B2 _B2 _e3 _B |c8 |c4 z2 c2 |f8 |f _e _d c _B _A G F |E8 |E2 _D2 _D3 C |C8 |z8 |z6 F2 |F6 G2 |G3 F F3 F |F4 c4 |c6 z2 |_A6 G/3_A/3G/3 |F3 G F3 _E |F4 _A4 |_A6 z2 |_B6 A/3_B/3A/3 |G3 A G3 F |G4 _B4 |_B6 z2 |_B6 A/3_B/3A/3 |G3 A G3 F |G4 _B4 |_B6 z2 |c6 B/3c/3B/3 |A3 B A3 G |A4 c4 |c6 z2 |c8 |c6 z2 |c8 |c6 z2 |c8 |c4 z4 |e8 |e2 z6 |